X: 21021
T: Lauchlan's Lilt
%R: reel
B: James Oswald "The Caledonian Pocket Companion" v.2 p.102 #1
Z: 2019 John Chambers <jc:trillian.mit.edu>
N: The 2nd strain has initial repeat but no final repeat; not fixed
M: C
L: 1/8
K: Gm
|: "_Brisk"\
d2dc BGGA | BdcB AFF2 |\
d2dc BGgf | dBcd BGG2 :|
|:\
b2ba gdd=e | fgag fFF2 |\
b2ba gfdg | fdcd BGG2 :|
|:\
BGdG BGdG | AFcF AFcF |\
BGdG BGgf | dBcd BGG2 :|
|:\
bag^f gdc_e | d=f=eg fFF2 |\
bag^f gd_ec | dg^fa gGG2 :|
